X:1
T:James Gibb editions
T:Mia benigna fortuna - Rore
T:#
%%score [ 1 2 3 4 ]
L:1/8
Q:1/4=100
M:4/4
K:G
V:1 treble nm="Soprano" snm="S"
V:2 treble nm="Alto" snm="A"
V:3 treble-8 nm="Tenor" snm="T"
V:4 bass nm="Bass" snm="B"
V:1
"^Mia benigna fortuna""^Francesco Petrarca\n(1304-74)""^Cipriano de Rore\n(1515/6-65)" E8 | %1
w: Mia|
 E4 G4- | G2 G2 F2 (G2- | G2 FE F4) ||[M:3/2][Q:1/4=150] G8 z4 | z12 | %6
w: be- ni\-|* gna for- tu\-||na||
[M:3/2][Q:1/4=150][Q:1/4=150][Q:1/4=150][Q:1/4=150] z4 e4 e4 | d2 (c4 B2) c4 || %8
w: e'l vi-|ver lie\- * to|
[M:4/4][Q:1/4=100] z2 B2 A2 e2 | (edcB AG A2) | ^G4 z4 | A4 A2 A2 | %12
w: I chia- ri|gior\- * * * * * *|ni|e le tran-|
[M:4/4][Q:1/4=100][Q:1/4=100][Q:1/4=100][Q:1/4=100] A6 G2 | (G6 F2) | F4 z4 | E6 E2 | F4 G2 z A | %17
w: qui- le|not\- *|ti,|E~i so-|a- vi so-|
 ^G2 A2 z2 F2 | F6 =G2 | A4 G2 B2- | B2 B2 B2 cc | B2 B2 A2 B2 | (G3 A B2) B2 | z2 B4 A2 | %24
w: spi- ri, e'l|dol- ce|sti- le Che|* so- lea ri- so-|na- re~in ver- si~en|ri\- * * me,|Vol- ti|
 G2 GF A2 E2 | z2 D4 B2- | B2 A2 (G4- | G2 F2) F4 | z8 | z4 z2 F2- | F2 d4 B2- | BB B2 c4 | %32
w: su- bi- ta- men- te|in do\-|* gli'en pian\-|* * to||O\-|* diar vi\-|* ta mi fan-|
 A4 G2 =F2 | G4 A4 | z8 | z2 F4 d2- | d2 B3 B B2 | c4 A4 | G2 =F2 G4 | A8 || E4 ^c4- | c4 B4- | %42
w: no'et bra- mar|mor- te,||o- diar|* vi- ta mi|fan- no'et|bra- mar mor-|te.|Cru- de\-|* le'a\-|
 B2 d4 d2 | c2 d2 e4- | e2 E2 (E3 F | G4) F4 | z8 | B4 A2 B2 | e2 e2 e4- | e2 ^d2 z2 B2 | %50
w: * cer- ba'in-|ex- o- ra\-|* bil mor\- *|* te,||in- ex- o-|ra- bil mor\-|* te, Ca-|
 B2 B2 c4- | c4 A4 | _B4 B2 B2- | B2 A2 ^G4 | A2 E2 G2 A2 | B2 B2 B2 B2 | A2 F2 G4- | G4 F4 | %58
w: gion mi dai|* di|mai non es\-|* ser lie-|to, Ma di me-|nar tut- ta mia|vi- ta'in pian\-|* to,|
 z8 x4 | z8 | z2 E2 =F2 E2 | D4 D4 | z2 c2 B2 c2 | d4 c2 (B2- | B2 AG A4) | B4 z4 | z4 z2 G2 | %67
w: ||E~i gior- ni'o-|scu- ri|et le do-|glio- se not\-||ti;|I|
 A2 G3 G F2 | G4 z4 | z2 G2 E2 E2 | (=FE E4 ^D2) | E2 B2 c4 | e4 d2 c2 | B4 z2 A2 | B2 d4 c2 | %75
w: miei gra- vi so-|spir|non va- no'in|ri\- * * *|me, E'il mio|du- ro mar-|tir, e'il|mio du- ro|
 _B2 A2 z2 =B2 | A2 G2 (A3 G | =F4) E2 B2 | c4 e4 | d2 c2 B4 | z2 A2 B2 d2- | d2 c2 _B2 A2 | %82
w: mar- tir vin-|ce'o- gni sti\- *|* le, e'il|mio du-|ro mar- tir,|e'il mio du\-|* ro mar- tir|
 z2 G2 E2 E2 |[Q:1/4=99] (=F[Q:1/4=98]E[Q:1/4=97] E4[Q:1/4=95] ^D2) |[Q:1/4=92] E8- | %85
w: vin- ce'o- gni|sti\- * * *|le.|
[Q:1/4=87] E8 |[Q:1/4=85] E8 |] %87
w: ||
V:2
 z8 | z2 E4 E2 | D4 D2 B,2 | D8 ||[M:3/2] D4 z4 E4 | E4 D2 (C4 B,2) |[M:3/2] C4 G4 A4 | %7
w: |Mia be-|ni- gna for-|tu-|na e'l|vi- ver lie\- *|to, e'l vi\-|
 A2 A2 G4 G4 ||[M:4/4] z2 G2 F2 G2 | E8 | E4 z2 =F2 | =F4 F4 |[M:4/4] =F6 E2 | (E6 ^D2) | ^D4 z4 | %15
w: * ver lie- to,|I chia- ri|gior-|ni et|le tran-|qui- le|not\- *|ti,|
 B,6 C2 | D4 E2 z E | E2 E2 z2 D2 | D6 E2 | (C3 D E2) D2 | G2 G2 G2 GG | G4 z2 G2 | G2 E2 G2 F2 | %23
w: E~i so-|a- vi so-|spi- ri, e'l|dol- ce|sti\- * * le|Che so- lea ri- so-|nar in|ver- si~en ri- me,|
 z4 z2 E2- | E2 D2 C2 CC | B,2 A,2 (B,3 C | D6) B,2 | B,8 | ^G,8 | z2 A,4 A2- | A2 F3 F F2 | %31
w: Vol\-|* ti su- bi- ta-|men- te~in do\- *|* gli'en|pian-|to|O- diar|* vi- ta mi|
 G6 G,2 | A,2 A,2 (_B,3 A, | G,4) C4 | z4 E4 | A6 F2- | FF F2 G4- | G2 G,2 A,2 A,2 | %38
w: fan- no'et|bra- mar mor\- *|* te,|o-|diar vi\-|* ta mi fa\-|* no'et bra- mar|
 (_B,3 A, G,4) | C8 || z4 A,4 | E8 | D4 =F4- | F2 =F2 G2 G2 | A6 ^G2 | B8 | A4 z4 | z2 B,2 C2 B,2 | %48
w: mor\- * *|te.|Cru-|de-|le'a- cer\-|* ba'in- ex- o-|ra- bil|mor-|te,|in- ex- o-|
 A,2 G,2 A,4 | B,4 z2 B,2 | D2 D2 E2 E2 | E2 E2 =F4 | D4 G2 =F2 | G2 =F2 E4 | E4 z4 | %55
w: ra- bil mor-|te, Ca-|gion mi dai, ca-|gion mi dai|di mai non|es- ser lie-|to,|
 z2 B,2 D2 E2 | F4 z4 | B,4 D2 D2 | E2 D2 (C4- x4 | C2 B,2) B,4 | z2 C2 A,2 A,2 | _B,8 | %62
w: Ma di me-|nar|tut- ta mia|vi- ta'in pian\-|* * to,|E~i gior- ni'o-|scu-|
 A,4 z2 G2 | G2 F2 G4 | E4 E2 F2 | G4 F2 (E2- | E2 ^D^C D2 E2) | E4 z2 D2 | C2 B,3 B, A,2 | %69
w: ri, e~i|gior- ni'o- scu-|ri~et le do-|glio- se not\-||ti; I|miei gra- vi so-|
 B,2 D2 C2 C2 | (C4 B,4) | B,4 z2 E2- | E2 G4 A2- | A2 G2 =F2 E2 | E2 =F2 G4 | =F2 E2 D4 | %76
w: spir non va- no'in|ri\- *|me, E'l|* mio du\-|* ro mar- tir,|e'l mio du-|ro mar- tir|
 z2 E2 D2 C2 | D4 B,4 | z2 E4 G2- | G2 A4 G2 | =F2 E2 E2 F2 | G4 =F2 E2 | D4 z2 C2 | C2 C2 B,4 | %84
w: vin- ce'o- gni|sti- le,|e'il mio|* du- ro|mar- tir, e'l mio|du- ro mar-|tir vin-|ce'o- gni sti-|
 B,2 B,2 A,2 G,2 | (C6 B,2) | B,8 |] %87
w: le, vin- ce'o- gni|sti\- *|le.|
V:3
 z8 | B6 B2 | G4 A2 G2 | A8 ||[M:3/2] B12 | z12 |[M:3/2][K:treble-8] g4 e6 c2 | (=f3 e d4) c4 || %8
w: |Mia be-|ni- gna for-|tu-|na||e'l vi- ver|lie\- * * to,|
[M:4/4] z2 d2 d2 B2 | (cded cB c2) | B4 z2 d2 | d2 d2 d4- |[M:4/4][K:treble-8] d2 c2 (c4- | %13
w: I chia- ri|gior\- * * * * * *|ni et|le tran- qui\-|* le not\-|
 c2 B2) B4- | B4 z4 | G4 G2 A2- | A2 A2 z2 c2 | B2 A2 z4 | A6 c2- | c2 A2 c2 B2 | d2 d2 e2 ee | %21
w: * * ti,||E~i so- a\-|* vi so-|spi- ri,|e'l dol\-|* ce sti- le|Che so- lea ri- so-|
 d2 e2 e2 e2 | e6 ^d2 | e4 =d2 c2 | cc B2 A4 | z2 F4 G2- | G2 F4 (E2- | E2 D2) D4 | z4 E4 | ^c8 | %30
w: na- re~in ver- si~en|ri- me,|Vol- ti su-|bi- ta- men- te|in do\-|* gli'en pian\-|* * to|O-|diar|
 d6 d2 | d2 e4 e2 | d2 c2 d4- | d4 e4 | z2 E4 ^c2- | c4 d4- | d2 d2 d2 e2- | e2 e2 d2 c2 | d8 | %39
w: vi- ta|mi fan- no'et|bra- mar mor\-|* te,|o- diar|* vi\-|* ta mi fan\-|* no'et bra- mar|mor-|
 e8 || z8 | z8 | z8 | z4 E4 | ^c8 | B6 d2- | d2 d2 c2 d2 | e6 E2 | E8 | F4 z2 G2 | F2 F2 G2 G2- | %51
w: te.||||Cru-|de-|le'a- cer\-|* ba'in- ex- o-|ra- bil|mor-|te, Ca-|gion mi dai, di|
 G2 A4 =F2 | (=f3 e d4- | d2) c2 B4 | A2 c2 c2 c2 | B2 E2 B4 | ^c2 (d3 =cBA | G2) B2 B2 B2 | %58
w: * mai non|es\- * *|* ser lie-|to, Ma di me-|nar, ma di|me- nar * * *|* tut- ta mia|
 A2 F2 G4- x4 | G4 F4 | z2 A2 A2 E2 | =F4 G4 | z2 e2 e2 e2 | B4 E4 | c8 | B4 z4 | z2 A4 B2 | %67
w: vi- ta'in pian\-|* to,|E~i gior- ni'o-|scu- ri|et le do-|glio- se|not-|ti|I miei|
 c4 B2 A2 | G4 z4 | z2 B2 A2 G2 | (A3 G FE F2) | (G3 F/G/ A4) | z2 c4 c2 | e4 d2 c2 | B2 A2 B2 e2 | %75
w: gra- vi so-|spir|non va- no'in|ri\- * * * *|me, * * *|E'il mio|du- ro mar-|tir, e'il mio du-|
 d2 c2 B4 | c4 A2 A2 | (_BA A4 ^G2) | A4 z2 B2- | B2 c2 e4 | d2 c2 B2 A2 | B2 e2 d2 c2 | %82
w: ro mar- tir|vin- ce'o- gni|sti\- * * *|le, e'il|* mio du-|ro mar- tir, e'l|mio du- ro mar-|
 B2 B2 A2 G2 | A4 F4 | z2 G2 E2 E2 | (A6 ^G2) | ^G8 |] %87
w: tir vin- ce'o- gni|sti- le,|vin- ce'o- gni|sti\- *|le.|
V:4
 z4 E,4- | E,4 E,4 | G,4 D,2 E,2 | D,8 ||[M:3/2] G,4 z2 G,2 E,4 | C,4 (=F,3 E, D,4) | %6
w: Mia|* be-|ni- gna for-|tu-|na e'l vi-|ver lie\- * *|
[M:3/2] C,4 z2 C2 A,4 | =F,4 G,4 C,4 ||[M:4/4] z2 G,2 D,2 E,2 | A,8 | E,4 z2 D,2 | D,4 D,4 | %12
w: to, e'l vi-|ver lie- to|I chia- ri|gior-|ni et|le tran-|
[M:4/4] =F,6 C,2 | (E,6 B,,2) | B,,4 z4 | E,6 A,,2 | D,4 C,2 A,,2 | E,2 A,,2 z2 D,2 | D,6 C,2 | %19
w: qui- le|not\- *|ti,|E~i so-|a- vi so-|spi- ri, e'l|dol- ce|
 =F,4 E,2 G,2- | G,2 G,2 E,2 C,C, | G,2 E,2 A,2 G,2 | C4 B,2 B,2 | A,2 G,2 G,F, A,2 | E,4 z2 A,,2 | %25
w: sti- le Che|* so- lea ri- so-|na- re~in ver- si~en|ri- me, Vol-|ti su- bi- ta- men-|te in|
 D,8 | D,4 B,,4- | B,,4 B,,4 | z8 | A,,4 F,4- | F,2 B,,3 B,, B,,2 | G,4 E,2 E,2 | =F,4 (_B,,4 | %33
w: do-|gli'en pian\-|* to||O- diar|* vi- ta mi|fan- no'et bra-|mar mor\-|
 _B,4) A,4 | z4 A,,4 | F,6 B,,2- | B,,B,, B,,2 G,4 | E,2 E,2 =F,4 | (_B,,4 _B,4) | A,8 || z8 | z8 | %42
w: * te,|o-|diar vi\-|* ta mi fan-|no'et bra- mar|mor\- *|te.|||
 z8 | z8 | A,,4 E,4- | E,4 D,4 | =F,6 F,2 | G,2 G,2 A,2 G,2 | C,8 | B,,4 z2 E,2 | D,2 D,2 C,4 | %51
w: ||Cru- de\-|* le'a-|cer- ba'in-|ex- o- ra- bil|mor-|te, Ca-|gion mi dai|
 C,4 (D,4- | G,,2) _B,,2 (_B,3 A, | G,2) A,2 E,4 | A,,4 z4 | z2 G,2 G,2 G,2 | F,2 B,,4 E,2- | %57
w: di mai|* non es\- *|* ser lie-|to,|Ma di me-|nar tut- ta|
 E,2 E,2 (D,3 C,/B,,/ | C,2) D,2 E,8 | B,,4 x4 | z2 A,,2 D,2 C,2 | (_B,,4 G,,4) | A,,4 z4 | z8 | %64
w: * mia vi\- * *|* ta'in pian-|to|E~i gior- ni'o-|scu\- *|ri||
 z2 A,2 A,2 A,2 | E,4 A,,4 | F,6 E,2 | z2 C,2 D,4 | E,4 D,2 C,2 | B,,4 C,4 | A,,2 A,,2 (B,,4 | %71
w: et le do-|glio- se|not- ti|I miei|gra- vi so-|spir non|va- no'in ri\-|
 E,4 (A,,3 B,, | C,D, E,2) z4 | E,4 =F,2 A,2 | G,2 =F,2 E,4 | z8 | z4 =F,4 | D,2 D,2 E,4 | %78
w: * me, *||E'il mio du-|ro mar- tir||vin-|ce'o- gni sti-|
 A,,3 B,, C,D, E,2) | z4 E,4 | =F,2 A,2 G,2 F,2 | E,4 z4 | z4 C,4 | A,,2 A,,2 B,,4 | E,4 C,4 | %85
w: le * * * *|e'il|mio du- ro mar-|tir|vin-|ce'o- gni sti-|le, vin-|
 A,,2 A,,2 E,4 | E,8 |] %87
w: ce'o- gni sti-|le.|

